remix/Map/barricade-fill.svg

<svg viewBox="0 0 24 24" fill="currentColor" xmlns="http://www.w3.org/2000/svg"><path d="M19.5556 19H21V21H3V19H4.44444L5.33333 15H18.6667L19.5556 19ZM17.3333 9L18.2222 13H5.77778L6.66667 9H17.3333ZM16.8889 7H7.11111L7.82598 3.78307C7.92766 3.32553 8.33347 3 8.80217 3H15.1978C15.6665 3 16.0723 3.32553 16.174 3.78307L16.8889 7Z"/></svg>

<svg viewBox="0 0 24 24" xmlns="http://www.w3.org/2000/svg"><path fill="none" d="M0 0h24v24H0Z"/><path d="M19.556 19h1.44v2h-18v-2H4.44l.89-4h13.33l.88 4Zm-2.23-10l.89 4H5.76l.88-4h10.666Zm-.45-2H7.09l.71-3.22h0c.1-.46.5-.79.97-.79h6.39v0c.46 0 .87.32.97.78l.71 3.21Z"/></svg>
